svgs/sharp-solid/hand-holding-box.svg

<svg xmlns="http://www.w3.org/2000/svg" viewBox="0 0 576 512"><!--! Font Awesome Pro 6.6.0 by @fontawesome - https://fontawesome.com License - https://fontawesome.com/license (Commercial License) Copyright 2024 Fonticons, Inc. --><path d="M224 128L224 0 96 0l0 256 384 0L480 0 352 0l0 128L288 96l-64 32zM140 327L68.8 384 0 384 0 512l32 0 192 0 160 0 12.4 0 10.2-7 128-88 33-22.7-45.3-65.9-33 22.7-94.5 65L256 416l0-32 32 0 64 0 32 0 0-64-32 0-64 0-64 0-64 0-11.2 0-8.8 7z"/></svg>

<svg xmlns="http://www.w3.org/2000/svg" viewBox="0 0 576 512"><!--! Font Awesome Pro 6.4.2 by @fontawesome - https://fontawesome.com License - https://fontawesome.com/license (Commercial License) Copyright 2023 Fonticons, Inc. --><path d="M224 128V0H96V256H480V0H352V128L288 96l-64 32zM140 327L68.8 384H0V512H32 224 384h12.4l10.2-7 128-88 33-22.7-45.3-65.9-33 22.7-94.5 65H256V384h32 64 32V320H352 288 224 160 148.8l-8.8 7z"/></svg>
